icons/mail-open-line.svg

<svg xmlns="http://www.w3.org/2000/svg" width="24" height="24" fill="none"><g clip-path="url(#a)"><g><path fill="#121212" d="M2.243 6.85399L11.49 1.30999C11.6454 1.21674 11.8233 1.16748 12.0045 1.16748C12.1857 1.16748 12.3636 1.21674 12.519 1.30999L21.757 6.85499C21.8311 6.8994 21.8925 6.96227 21.9351 7.03746C21.9776 7.11264 22 7.19758 22 7.28399V20C22 20.2652 21.8946 20.5196 21.7071 20.7071C21.5196 20.8946 21.2652 21 21 21H3C2.73478 21 2.48043 20.8946 2.29289 20.7071C2.10536 20.5196 2 20.2652 2 20V7.28299C1.99998 7.19658 2.02236 7.11164 2.06495 7.03646C2.10753 6.96127 2.16888 6.8984 2.243 6.85399ZM4 8.13299V19H20V8.13199L12.004 3.33199L4 8.13199V8.13299ZM12.06 13.698L17.356 9.23499L18.644 10.765L12.074 16.302L5.364 10.772L6.636 9.22799L12.06 13.698Z"/></g></g><defs><clipPath id="a"><rect width="24" height="24" fill="white"/></clipPath></defs></svg>

<svg width="24" height="24" fill="none" xmlns="http://www.w3.org/2000/svg"><g clip-path="url(#a)"><path d="M2.243 6.854 11.49 1.31a1 1 0 0 1 1.029 0l9.238 5.545a.5.5 0 0 1 .243.429V20a1 1 0 0 1-1 1H3a1 1 0 0 1-1-1V7.283a.5.5 0 0 1 .243-.429ZM4 8.133V19h16V8.132l-7.996-4.8L4 8.132v.001Zm8.06 5.565 5.296-4.463 1.288 1.53-6.57 5.537-6.71-5.53 1.272-1.544 5.424 4.47Z" /></g><defs><clipPath id="a"><path fill="#fff" d="M0 0h24v24H0z"/></clipPath></defs></svg>
